X:1
T: Green Fields of America
P:Version O'Neill's
R:Reel
Q: 232
K:G
M:4/4
L:1/8
|:B2|c2 ec B2 cB|AG AB AG EF|GA GE DE GB|AG AB AG EG|
c2 ec B2 dB|AG AB AG EF|GA GE DE GB|AG AB G2:|
|:D2|GA Bc d2 ef|gf ge dB GB|c2 ec B2 dB|AG AB AG E2|
gf ge ef ge|dc BG AG EF|GA GE DE GB|BG AF G2:|
